img/philosophy-icon5.svg

<svg width="100" height="100" viewBox="0 0 100 100" fill="none" xmlns="http://www.w3.org/2000/svg">
<g clip-path="url(#clip0_136_2942)">
<path d="M16.129 25.8065H22.5806V29.0324H16.129V25.8065ZM25.8064 25.8065H38.7097V29.0324H25.8064V25.8065ZM82.2581 12.9033C79.5903 12.9033 77.4193 15.0743 77.4193 17.742C77.4193 20.4098 79.5903 22.5807 82.2581 22.5807C84.9258 22.5807 87.0968 20.4098 87.0968 17.742C87.0968 15.0743 84.9258 12.9033 82.2581 12.9033ZM82.2581 19.3549C81.3694 19.3549 80.6452 18.6307 80.6452 17.742C80.6452 16.8533 81.3694 16.1291 82.2581 16.1291C83.1468 16.1291 83.871 16.8533 83.871 17.742C83.871 18.6307 83.1468 19.3549 82.2581 19.3549Z" fill="#3391AC"/>
<path d="M97.8339 22.5806H100V12.9032H97.8339C96.8339 12.9032 96.4403 12.1419 96.3436 11.9081C96.2468 11.6742 95.9855 10.8581 96.6936 10.15L98.2258 8.61774L91.3823 1.77419L89.85 3.30645C89.6266 3.53555 89.3391 3.69161 89.0252 3.75409C88.7114 3.81657 88.386 3.78253 88.0919 3.65645C87.7947 3.53796 87.5404 3.33205 87.3627 3.06595C87.1851 2.79984 87.0923 2.48608 87.0968 2.16613V0H77.4194V2.16613C77.4238 2.48608 77.3311 2.79984 77.1534 3.06595C76.9757 3.33205 76.7214 3.53796 76.4242 3.65645C76.1887 3.75161 75.3726 4.01452 74.6661 3.30645L73.1339 1.77419L68.4581 6.45161H19.3548C17.5758 6.45161 16.129 7.89839 16.129 9.67742H9.67742C7.89839 9.67742 6.45161 11.1242 6.45161 12.9032V16.129H3.22581C1.44677 16.129 0 17.5758 0 19.3548V74.1936C0 75.9726 1.44677 77.4194 3.22581 77.4194H12.9032V80.6452C12.9032 82.4242 14.35 83.871 16.129 83.871H17.0274L13.1806 94.1323C12.9356 94.7893 12.8531 95.4959 12.9402 96.1917C13.0273 96.8875 13.2814 97.552 13.6808 98.1283C14.0803 98.7047 14.6131 99.176 15.2341 99.5019C15.855 99.8278 16.5455 99.9987 17.2468 100H17.8097C19.3258 100 20.7532 99.1919 21.5339 97.8919L29.9452 83.871H63.6032L72.0161 97.8919C72.4036 98.5332 72.9496 99.0639 73.6015 99.4331C74.2535 99.8023 74.9895 99.9975 75.7387 100H76.3016C77.0032 99.999 77.6941 99.8283 78.3154 99.5024C78.9367 99.1766 79.47 98.7052 79.8696 98.1285C80.2693 97.5519 80.5234 96.8871 80.6105 96.191C80.6975 95.4948 80.6148 94.7879 80.3694 94.1306L76.521 83.871H77.4194C79.1984 83.871 80.6452 82.4242 80.6452 80.6452V77.4194H90.3226C92.1016 77.4194 93.5484 75.9726 93.5484 74.1936V31.5419L98.2242 26.8661L96.6919 25.3339C95.9855 24.6274 96.2452 23.8097 96.3419 23.5758C96.4387 23.3419 96.8339 22.5806 97.8339 22.5806ZM19.3548 9.67742H67.35L67.8226 10.15C68.529 10.8565 68.2694 11.6742 68.1726 11.9081C68.0758 12.1419 67.6823 12.9032 66.6823 12.9032H64.5161V19.3548H19.3548V9.67742ZM9.67742 12.9032H16.129V16.129H9.67742V12.9032ZM18.7677 96.2323C18.6677 96.3969 18.5271 96.5332 18.3593 96.6281C18.1916 96.723 18.0024 96.7733 17.8097 96.7742H17.2468C17.0662 96.7739 16.8883 96.7299 16.7283 96.646C16.5684 96.5621 16.4312 96.4407 16.3283 96.2922C16.2255 96.1437 16.1601 95.9725 16.1377 95.7933C16.1154 95.6141 16.1368 95.4321 16.2 95.2629L20.4726 83.871H26.1839L18.7677 96.2323ZM77.3484 95.2629C77.4116 95.4321 77.433 95.6141 77.4107 95.7933C77.3883 95.9725 77.3229 96.1437 77.2201 96.2922C77.1172 96.4407 76.98 96.5621 76.82 96.646C76.6601 96.7299 76.4822 96.7739 76.3016 96.7742H75.7387C75.5459 96.7737 75.3565 96.7236 75.1887 96.6287C75.0209 96.5338 74.8804 96.3973 74.7806 96.2323L67.3645 83.871H73.0758L77.3484 95.2629ZM77.4194 80.6452H16.129V77.4194H77.4194V80.6452ZM3.22581 74.1936V19.3548H16.129C16.129 21.1339 17.5758 22.5806 19.3548 22.5806H66.6823C67.6823 22.5806 68.0758 23.3419 68.1726 23.5758C68.2694 23.8097 68.5306 24.6258 67.8226 25.3339L66.2903 26.8661L73.1339 33.7097L74.6661 32.1774C75.3742 31.471 76.1903 31.7306 76.4242 31.8274C76.6581 31.9242 77.4194 32.3177 77.4194 33.3177V67.7419H74.1936V70.9677H83.871V67.7419H80.6452V35.4839H87.0968V33.3177C87.0923 32.9978 87.1851 32.684 87.3627 32.4179C87.5404 32.1518 87.7947 31.9459 88.0919 31.8274C88.3858 31.7002 88.7115 31.6656 89.0256 31.7281C89.3397 31.7906 89.6272 31.9474 89.85 32.1774L90.3226 32.65V74.1936H3.22581ZM93.3629 22.3419C93.0573 23.0573 92.932 23.8367 92.9981 24.6118C93.0642 25.3869 93.3196 26.1338 93.7419 26.7871L91.3032 29.2258C90.6501 28.8031 89.9031 28.5474 89.128 28.4813C88.3528 28.4152 87.5733 28.5407 86.8581 28.8468C86.1361 29.1365 85.4963 29.5991 84.9949 30.1939C84.4934 30.7887 84.1457 31.4975 83.9823 32.2581H80.5323C80.3687 31.4975 80.0209 30.7888 79.5195 30.194C79.0181 29.5993 78.3783 29.1366 77.6564 28.8468C76.941 28.5416 76.1617 28.4165 75.3867 28.4826C74.6117 28.5487 73.8647 28.8039 73.2113 29.2258L70.7726 26.7871C71.621 25.4742 71.7758 23.8484 71.1516 22.3419C70.5274 20.8355 69.2694 19.7952 67.7403 19.4661V16.0177C69.2677 15.6887 70.5274 14.6484 71.1516 13.1419C71.7758 11.6355 71.621 10.0113 70.7726 8.69677L73.2113 6.25806C73.865 6.67934 74.6119 6.93415 75.3867 7.00022C76.1616 7.06629 76.9409 6.94162 77.6564 6.6371C78.3787 6.34745 79.0187 5.88493 79.5204 5.29014C80.0221 4.69536 80.3701 3.9865 80.5339 3.22581H83.9839C84.1475 3.98633 84.4952 4.69508 84.9967 5.28985C85.4981 5.88462 86.1378 6.34723 86.8597 6.6371C87.5749 6.94315 88.3544 7.06865 89.1296 7.00256C89.9047 6.93646 90.6517 6.68079 91.3048 6.25806L93.7435 8.69677C93.3211 9.34998 93.0656 10.097 92.9995 10.8721C92.9334 11.6472 93.0587 12.4266 93.3645 13.1419C93.6539 13.8639 94.1161 14.5037 94.7107 15.0051C95.3052 15.5066 96.0138 15.8543 96.7742 16.0177V19.4677C96.0137 19.6308 95.3049 19.9782 94.71 20.4793C94.1152 20.9805 93.6526 21.6201 93.3629 22.3419Z" fill="#3391AC"/>
<path d="M82.2581 6.45166C76.0323 6.45166 70.9677 11.5162 70.9677 17.742C70.9677 23.9678 76.0323 29.0323 82.2581 29.0323C88.4839 29.0323 93.5484 23.9678 93.5484 17.742C93.5484 11.5162 88.4839 6.45166 82.2581 6.45166ZM82.2581 25.8065C77.8113 25.8065 74.1936 22.1888 74.1936 17.742C74.1936 13.2952 77.8113 9.67747 82.2581 9.67747C86.7048 9.67747 90.3226 13.2952 90.3226 17.742C90.3226 22.1888 86.7048 25.8065 82.2581 25.8065ZM66.4 33.1533L67.9548 35.4839H12.6903L14.2452 33.1533L11.5613 31.3629L7.73871 37.0968L11.5613 42.8307L14.2452 41.0404L12.6903 38.7097H67.9548L66.4 41.0404L69.0839 42.8307L72.9064 37.0968L69.0839 31.3629L66.4 33.1533Z" fill="#3391AC"/>
<path d="M61.7629 43.3532C61.3147 42.9021 60.7813 42.5445 60.1938 42.3011C59.6063 42.0577 58.9763 41.9334 58.3403 41.9355H24.1936V41.9838C22.7903 41.9838 21.3871 42.4467 20.3065 43.3742L11.0129 51.3403C10.5938 51.6987 10.2574 52.1437 10.0268 52.6446C9.79628 53.1455 9.67707 53.6905 9.67743 54.2419C9.67743 56.1451 11.079 57.7161 12.9032 58.0048V70.9677H67.7419V57.9967C68.6436 57.8401 69.4613 57.3707 70.0512 56.671C70.6412 55.9713 70.9657 55.0861 70.9678 54.1709C70.9678 53.1306 70.5629 52.1532 69.8274 51.4177L61.7629 43.3532ZM13.1113 53.7887L22.4048 45.8225C22.903 45.3963 23.5371 45.162 24.1928 45.162C24.8484 45.162 25.4825 45.3963 25.9807 45.8225L35.2742 53.7887C35.3668 53.8679 35.4328 53.9737 35.4635 54.0916C35.4942 54.2095 35.4881 54.334 35.4459 54.4483C35.4038 54.5627 35.3276 54.6614 35.2277 54.7311C35.1278 54.8009 35.009 54.8384 34.8871 54.8387H13.5C13.378 54.8388 13.2589 54.8015 13.1588 54.7318C13.0586 54.6622 12.9822 54.5635 12.9399 54.4491C12.8975 54.3347 12.8913 54.21 12.9219 54.092C12.9526 53.9739 13.0187 53.868 13.1113 53.7887ZM16.129 58.0645H32.2581V67.7419H29.0323V64.5161C29.0323 62.7371 27.5855 61.2903 25.8065 61.2903H22.5807C20.8016 61.2903 19.3548 62.7371 19.3548 64.5161V67.7419H16.129V58.0645ZM25.8065 67.7419H22.5807V64.5161H25.8065V67.7419ZM45.1613 67.7419H41.9355V64.5161H45.1613V67.7419ZM58.0645 67.7419H54.8387V64.5161H58.0645V67.7419ZM61.2903 67.7419V64.5161C61.2903 62.7371 59.8436 61.2903 58.0645 61.2903H54.8387C53.0597 61.2903 51.6129 62.7371 51.6129 64.5161V67.7419H48.3871V64.5161C48.3871 62.7371 46.9403 61.2903 45.1613 61.2903H41.9355C40.1565 61.2903 38.7097 62.7371 38.7097 64.5161V67.7419H35.4839V58.0645H64.5161V67.7419H61.2903ZM67.0742 54.8387H38.65C38.6807 54.6435 38.7097 54.4467 38.7097 54.2419C38.7097 53.1242 38.2226 52.0661 37.3742 51.3403L30.1661 45.1613H58.3403C58.771 45.1613 59.1774 45.329 59.4823 45.6338L67.5468 53.6984C67.6396 53.792 67.7026 53.911 67.728 54.0404C67.7534 54.1698 67.74 54.3038 67.6895 54.4256C67.639 54.5474 67.5537 54.6516 67.4442 54.7251C67.3348 54.7986 67.206 54.8381 67.0742 54.8387ZM41.9355 29.0322H45.1613V32.258H41.9355V29.0322ZM48.3871 29.0322H51.6129V32.258H48.3871V29.0322ZM54.8387 29.0322H58.0645V32.258H54.8387V29.0322Z" fill="#3391AC"/>
</g>
<defs>
<clipPath id="clip0_136_2942">
<rect width="100" height="100" fill="white"/>
</clipPath>
</defs>
</svg>

<svg width="100" height="100" fill="none" xmlns="http://www.w3.org/2000/svg"><g clip-path="url(#clip0_136_2942)" fill="#3391AC"><path d="M16.129 25.806h6.452v3.226h-6.452v-3.226zm9.677 0H38.71v3.226H25.806v-3.226zm56.452-12.903a4.845 4.845 0 00-4.839 4.839 4.845 4.845 0 004.84 4.839 4.845 4.845 0 004.838-4.839 4.845 4.845 0 00-4.839-4.839zm0 6.452a1.616 1.616 0 01-1.613-1.613c0-.889.724-1.613 1.613-1.613s1.613.724 1.613 1.613-.724 1.613-1.613 1.613z"/><path d="M97.834 22.58H100v-9.677h-2.166c-1 0-1.394-.761-1.49-.995-.097-.234-.358-1.05.35-1.758l1.532-1.532-6.844-6.844-1.532 1.532a1.584 1.584 0 01-1.758.35 1.58 1.58 0 01-.995-1.49V0h-9.678v2.166a1.581 1.581 0 01-.995 1.49c-.235.096-1.051.359-1.758-.35l-1.532-1.532-4.676 4.678H19.355a3.23 3.23 0 00-3.226 3.225H9.677a3.23 3.23 0 00-3.225 3.226v3.226H3.226A3.23 3.23 0 000 19.355v54.839a3.23 3.23 0 003.226 3.225h9.677v3.226a3.23 3.23 0 003.226 3.226h.898l-3.846 10.261A4.348 4.348 0 0017.247 100h.563a4.367 4.367 0 003.724-2.108l8.411-14.021h33.658l8.413 14.02A4.366 4.366 0 0075.74 100h.563a4.348 4.348 0 004.067-5.87l-3.848-10.259h.898a3.23 3.23 0 003.226-3.226V77.42h9.678a3.23 3.23 0 003.225-3.225V31.542l4.676-4.676-1.532-1.532c-.706-.707-.447-1.524-.35-1.758.097-.234.492-.995 1.492-.995zM19.354 9.678H67.35l.473.473c.706.707.446 1.524.35 1.758-.097.234-.49.995-1.49.995h-2.167v6.452H19.355V9.677zm-9.677 3.226h6.452v3.226H9.677v-3.226zm9.09 83.33a1.127 1.127 0 01-.957.541h-.563a1.12 1.12 0 01-1.047-1.511l4.273-11.392h5.71l-7.415 12.361zm58.581-.97a1.12 1.12 0 01-1.046 1.511h-.563a1.123 1.123 0 01-.958-.542l-7.416-12.361h5.71l4.273 11.392zm.071-14.618H16.13V77.42h61.29v3.226zM3.226 74.194v-54.84h12.903a3.229 3.229 0 003.226 3.227h47.327c1 0 1.394.76 1.49.995.097.234.359 1.05-.35 1.758l-1.532 1.532 6.844 6.844 1.532-1.533c.708-.706 1.524-.446 1.758-.35.234.097.995.49.995 1.49v34.425h-3.225v3.226h9.677v-3.226h-3.226V35.484h6.452v-2.166a1.581 1.581 0 01.995-1.49 1.576 1.576 0 011.758.35l.473.472v41.544H3.226zm90.137-51.852a4.75 4.75 0 00.379 4.445l-2.439 2.439a4.746 4.746 0 00-4.445-.38 4.75 4.75 0 00-2.876 3.412h-3.45a4.753 4.753 0 00-2.876-3.411 4.754 4.754 0 00-4.445.379l-2.438-2.439c.848-1.313 1.003-2.939.379-4.445-.625-1.506-1.883-2.547-3.412-2.876v-3.448c1.528-.33 2.787-1.37 3.412-2.876.624-1.506.469-3.13-.38-4.445l2.44-2.439a4.763 4.763 0 004.444.38 4.753 4.753 0 002.878-3.412h3.45a4.752 4.752 0 002.876 3.411 4.745 4.745 0 004.445-.379l2.438 2.439a4.75 4.75 0 00-.378 4.445 4.748 4.748 0 003.41 2.876v3.45a4.75 4.75 0 00-3.412 2.874z"/><path d="M82.258 6.452c-6.226 0-11.29 5.064-11.29 11.29 0 6.226 5.064 11.29 11.29 11.29 6.226 0 11.29-5.064 11.29-11.29 0-6.226-5.064-11.29-11.29-11.29zm0 19.355c-4.447 0-8.064-3.618-8.064-8.065 0-4.447 3.617-8.065 8.064-8.065s8.065 3.618 8.065 8.065c0 4.447-3.618 8.064-8.065 8.064zM66.4 33.153l1.555 2.33H12.69l1.555-2.33-2.684-1.79-3.822 5.734 3.822 5.734 2.684-1.79-1.555-2.331h55.265L66.4 41.04l2.684 1.79 3.822-5.733-3.822-5.734-2.684 1.79z"/><path d="M61.763 43.353a4.804 4.804 0 00-3.423-1.418H24.194v.049c-1.404 0-2.807.463-3.887 1.39l-9.294 7.966a3.816 3.816 0 00-1.336 2.902c0 1.903 1.402 3.474 3.226 3.763v12.963h54.839V57.997a3.891 3.891 0 003.226-3.826c0-1.04-.405-2.018-1.14-2.753l-8.065-8.065zM13.11 53.79l9.294-7.967a2.75 2.75 0 013.576 0l9.293 7.967a.596.596 0 01-.387 1.05H13.5a.596.596 0 01-.389-1.05zm3.018 4.276h16.13v9.677h-3.227v-3.226a3.23 3.23 0 00-3.226-3.226H22.58a3.23 3.23 0 00-3.226 3.226v3.226h-3.226v-9.678zm9.677 9.677H22.58v-3.226h3.226v3.226zm19.355 0h-3.226v-3.226h3.226v3.226zm12.904 0h-3.226v-3.226h3.226v3.226zm3.225 0v-3.226a3.229 3.229 0 00-3.225-3.226h-3.226a3.23 3.23 0 00-3.226 3.226v3.226h-3.226v-3.226a3.23 3.23 0 00-3.226-3.226h-3.226a3.23 3.23 0 00-3.225 3.226v3.226h-3.226v-9.678h29.032v9.678H61.29zm5.784-12.903H38.65c.03-.195.06-.392.06-.597a3.814 3.814 0 00-1.336-2.902l-7.208-6.179H58.34c.431 0 .837.168 1.142.473l8.065 8.064a.669.669 0 01-.473 1.14zM41.935 29.032h3.226v3.226h-3.226v-3.226zm6.452 0h3.226v3.226h-3.226v-3.226zm6.452 0h3.226v3.226h-3.226v-3.226z"/></g><defs><clipPath id="clip0_136_2942"><path fill="#fff" d="M0 0h100v100H0z"/></clipPath></defs></svg>
